!!!OTL: TRITT AUF DEN RIEGEL VON DER THUER
!!!ARE: Europa, Mitteleuropa, Deutschland
!!!SCT: E0469
!!!YEM: Copyright 1995, estate of Helmut Schaffrath.
**kern
*ICvox
*Ivox
*M4/4
*k[b-]
*F:
{4f
=1
4.f
8g
4a
4a
=2
2f
4r}
{4f
=3
4g
4a
4b-
4b-
=4
2a
4r}
{4f
=5
4e
4f
4g
4g
=6
2a}
{4g
4g
=7
4f
4a
2g
=8
2f
4r}
{4f
=9
4.f
8g
4a
4a
=10
2f
4r}
{4f
=11
4g
4a
4b-
4b-
=12
2a
4r}
{4f
=13
4e
4f
4g
4g
=14
2a}
{4g
4g
=15
4f
4a
2g
=16
2f
4r}
{4f
=17
4f
4e
4f
4d
=18
4.c
8d
4e}
{4f
=19
4g
4cc
4cc
4b-
=20
2cc}
{2a
=21
4g
4cc
4cc
4b-
=22
4cc}
{4a
4b-
8a
8g
=23
2a
4r
4a
=24
4a
4a
4a}
{4f
=25
4g
4a
4b-
4a
=26
8cc
8b-
8a
8g
4a}
{4f
=27
4e
4f
4g
4g
=28
2a
4g}
{4g
=29
4f
4a
4g
4g
=30
2f}
{2c
=31
4f
4a
4g
4g
=32
2f
4r}
==
!!!AGN: Liebes - Lied, Kilt -, Fenster - Lied
!!!ONB: ESAC (Essen Associative Code) Database: ERK1
!!!AMT: simple quadruple
!!!AIN: vox
!!!EED: Helmut Schaffrath
!!!EEV: 1.0
*-
